X:1
T:Sfogava con le stelle
T:Sfogava con le stelle
T:Giulio Caccini
T:Source : Le nuove Musische di C.Caccini detto Romano---Firenze---G.Marescotti---1601. Editor : André Vierendeels (23/06/15).
T:Notes : Original clefs : G2, F3 Figures in BC are notated in original print Lyrics by Ottavio Rinuccini
C:Giulio Caccini
%%score 1 2
L:1/8
Q:1/4=120
M:2/2
K:F
V:1 treble nm="Soprano" snm="S"
V:2 bass nm="BC" snm="BC"
V:1
 z2 G2 G3 G | G2 B2 G4 | A8 | z2 AA A2 AB | c4 c4 | d2 cc c3 B | B2 A2 c3 G | A8 | G4 z2 =BB | %9
w: Sfo- ga- va|con le stel-|le|un in- fer- mo d'a-|mo- re|sot- to not- tur- no|cie- lo'il suo do-|lo-|re, e di-|
 c4 d3 G | A4 A4 | d8 | d2 B2 c2 AA | c2 GG E2 E2 | G2 G2 A4- | A4 A2 ^F2 | G2 A2 B3 B | c8 | d8 | %19
w: cea- fis- so'in|lo- ro:|O,-|O i- ma- gi- ni|bel- le del' i- dol|mio ch'a- do-|* ro si|co- me'a me mo-|stra-|te,-|
 c2 AA c3 B | A4 A2 ^FF | G6 GG | A4 A2 A2 | A3 A A2 B2 | c4 c4 | c2 AA c3 B | A4 A2 A3/2B/4c/4 | %27
w: men- tre co- si splen-|de- te la sua|ra- ra bel-|ta- te co-|si mon- stra- te'a|le- i,|men- tre con- tan- to'ar-|do- re, i _ _|
 d6 c2 | d/c/d/B/ c/A/B/c/ B/A/B/G/ A/F/G/A/ | G/F/E/F/ G/F/G/A/ G/A/B/c<dG/ | A8 | G8 | %32
w: vi- vi'ar-|do- * * * * * * * * * * * * * * *|* * * * * * * * * * * * * ri|mie-|i,|
 z2 d=B c2 GG | B2 d4 BG | A2 A^F G2 G2 | A4 z2 d2 | d4 _e4 | d6 d2 | G2 G2 G3/2A/4B/4 A>B | %39
w: la fa- re- ste co'l|vo- stro'au- reo sem-|bia- te pie- to- sa|si, pie-|to- sa|si co-|me fa- te'a- * * * *|
 c3 B A4 | G8 | z2 d>=B c2 GG | B2 d4 BG | A2 A^F G2 G2 | A4 z2 d2 | d4 _e4 | d6 d2 | G2 G2 G4- | %48
w: * * man-|te,|la fa- re- ste col|vo- stro'au- reo sem-|bian- te pie- to- sa|si, pie-|to- sa|si co-|me fa- te'a-|
 G2 G/A/B/A/ A4 | G4 z2 d2 | c2 d2 e>f d>e | c>d =B>c d>c B>A | G>A ^F>G A>=B c/B/B | %53
w: * man- * * * *|te, co-|* me fa- * * *|||
 =B>A TA/A/A/4A/4A/4G/4 ^F2 G/4A/4_B/4A/4A | A8 | G8 |] %56
w: * * * * * * * * te'a- * * * * *|man-|te.|
V:2
 G,8 | B,,4 G,4 |"^11""^#10""^9" D,4 D,2 D,2 |"^#10" D,4 D,3 G, | F,4 F,,4 | B,2 A,2 G,2 G,2 | %6
"^7   6""^11  10""^6" F,2 F,2 _E,4 |"^11""^#10""^14" D,4 D,2 D,2 |"^-natural" G,,4 G,4 | %9
"^6" C,4 =B,,4 |"^11""^#10" D,4 D,,4 | B,,8 | B,4 F,4 | C,8 |"^11" G,,4 D,4 |"^#10" D,,4 D,4 | %16
"^6" G,2 F,2 _E,2 D,2 |"^6""^b" C,4 C,4 | B,,8 | F,6 G,2 | D,4 D,,4 | G,,4 G,4 | D,4 D,,4 | %23
 D,6 G,2 | F,4 F,,4 | F,6 G,2 | D,4 D,2 C,2 | B,,4 A,,4 | G,,8 | G,8 | %30
"^11""^#10""^14" D,4 D,2 D,2 | G,8 |"^b" G,,4 C,4 | G,,4 G,4 | D,4 G,,4 | D,,4 D,4 | G,4 C,4 | %37
"^-natural" D,4 G,2 F,2 |"^6" E,2 D,2 C,2 D,2 |"^6""^11""^#10""^14" E,2 C,2 D,2 D,D, | G,,8 | %41
 G,4 C,4 | G,,4 G,4 | D,4 G,,4 | D,,4 D,4 | G,4 C,4 |"^-natural" D,4 G,2 F,2 | %47
"^6" E,2 D,2 C,2 D,2 |"^11""^#10" E,2 C,2 D,2 D,2 | G,,4 G,2 F,2 |"^6      6" E,2 D,2 C,4 | %51
"^-natural" C,4 G,,2 A,,2 | =B,,4 ^F,,4 |"^#10""^11" G,,4 D,2 D,2 |"^11""^#10""^14" D,,4 D,2 D,2 | %55
 G,8 |] %56

